libs/ui/packages/crypto-icons/src/svg/DTA.svg

<svg width="24" height="24" viewBox="0 0 24 24" fill="none">
<path d="M18.3472 10.884H18.3622L18.375 14.6085L9.99225 19.5L7.74825 18.2385V18.24L7.734 18.231L5.625 16.8787V7.113L7.92975 5.75325L7.93425 5.7555L9.969 4.5L18.3315 9.42225L18.3472 10.884ZM15.891 13.218L14.1368 12.2137L8.2815 15.6593L10.0005 16.6815L15.891 13.218ZM13.7415 11.988L10.1295 9.9195L10.1137 14.1803L13.7415 11.988ZM10.131 9.4635L15.9375 12.8617V10.833L10.1385 7.44675L10.131 9.4635ZM7.74 17.6775L7.7625 15.6427L7.749 15.651V8.472L5.98875 7.422V16.632L7.74 17.6775ZM8.052 15.4268L9.81075 14.3632V7.422L8.052 8.47275V15.4268ZM10.2127 16.95L10.1775 19.077L18.0045 14.475L18.027 12.36L10.2127 16.95ZM16.0575 10.512L17.8793 9.4725L10.038 4.89375L8.2335 5.93775L16.0575 10.512Z" fill="#74D269"/>
</svg>

<svg width="24" height="24" viewBox="0 0 24 24" fill="none"><path fill="#74d269" d="M18.347 10.884h.015l.013 3.724L9.992 19.5l-2.244-1.262v.002l-.014-.009-2.109-1.352V7.113l2.305-1.36.004.002L9.97 4.5l8.362 4.922zm-2.456 2.334-1.754-1.004-5.856 3.445 1.72 1.022zm-2.15-1.23L10.13 9.92l-.016 4.26zm-3.61-2.524 5.807 3.398v-2.029l-5.8-3.386zM7.74 17.676l.022-2.034-.013.008V8.472l-1.76-1.05v9.21zm.312-2.25 1.759-1.064v-6.94l-1.759 1.05zm2.16 1.523-.034 2.127 7.826-4.602.023-2.115zm5.846-6.438 1.821-1.04-7.841-4.578-1.805 1.044z"/></svg>
